**kern	**kern	**kern	**kern
*staff3	*staff4	*staff1	*staff2
*clefF4	*clefF4	*clefG2	*clefG2
*k[f#c#]	*k[f#c#]	*k[f#c#]	*k[f#c#]
*M2/4	*M2/4	*M2/4	*M2/4
*D:	*D:	*D:	*D:
=-	=-	=-	=-
2r	2AA 2G	4e	2c#
.	.	8a	.
.	.	8r	.
=9	=9	=9	=9
2r	2AA 2F#	4f#	2d
.	.	8dd	.
.	.	8r	.
=10	=10	=10	=10
2r	2AA 2C# 2G	8ee	2r
.	.	8r	.
.	.	8a	.
.	.	8r	.
=11	=11	=11	=11
2r	2AA 2D 2F#	8dd	2r
.	.	8r	.
.	.	8d	.
.	.	8r	.
=12	=12	=12	=12
2r	2AA 2G	4e	2c#
.	.	8a	.
.	.	8r	.
=13	=13	=13	=13
2r	2AA 2F#	4f#	2d
.	.	8dd	.
.	.	8r	.
=14	=14	=14	=14
4CC# 4FF#	2AA	4a	2e
4BBB 4EE	.	16g#LL	.
.	.	16a	.
.	.	16b	.
.	.	16aJJ	.
=15	=15	=15	=15
4AAA	4D	4d	2r
4r	4r	4r	.
=16:|!	=16:|!	=16:|!	=16:|!
*-	*-	*-	*-
